Catalina-light/actions/22/zoom-half-size.svg

<svg xmlns="http://www.w3.org/2000/svg" viewBox="0 0 22 22">
  <defs id="defs3051">
    <style type="text/css" id="current-color-scheme">
      .ColorScheme-Text {
        color:#4d4d4d
      }
      </style>
  </defs>
    <path
       style="fill:currentColor;fill-opacity:1;stroke:none"
       class="ColorScheme-Text"
       d="M 6.625 3 L 3.3730469 3.0097656 C 3.2696969 3.0100956 3.176875 3.0532937 3.109375 3.1210938 C 3.041785 3.1888637 2.9997 3.2816256 3 3.3847656 L 3.0097656 6.6269531 C 3.0104256 6.8332531 3.1799687 7.0007 3.3867188 7 C 3.5934487 6.99934 3.7603756 6.83125 3.7597656 6.625 L 3.75 3.7558594 L 6.6269531 3.7460938 C 6.8336631 3.7454437 7.00065 3.5792669 7 3.3730469 C 6.99943 3.1667569 6.83187 2.99929 6.625 3 z M 15.375 3 C 15.16814 2.99929 15.00056 3.1667569 15 3.3730469 C 14.99935 3.5792669 15.166337 3.7454437 15.373047 3.7460938 L 18.25 3.7558594 L 18.240234 6.625 C 18.239624 6.83125 18.406561 6.99934 18.613281 7 C 18.820041 7.0007 18.989574 6.8332531 18.990234 6.6269531 L 19 3.3847656 C 19.0003 3.2816256 18.958215 3.1888637 18.890625 3.1210938 C 18.823125 3.0532937 18.730303 3.0100956 18.626953 3.0097656 L 15.375 3 z M 5.4003906 5 C 5.1787905 5 5 5.1787905 5 5.4003906 L 5 16.599609 C 5 16.821209 5.1787905 17 5.4003906 17 L 8.5996094 17 C 8.8212095 17 9 16.821209 9 16.599609 L 9 5.4003906 C 9 5.1787905 8.8212095 5 8.5996094 5 L 5.4003906 5 z M 14.400391 8 C 14.178791 8 14 8.1787908 14 8.4003906 L 14 13.599609 C 14 13.821209 14.178791 14 14.400391 14 L 16.599609 14 C 16.821209 14 17 13.821209 17 13.599609 L 17 8.4003906 C 17 8.1787908 16.821209 8 16.599609 8 L 14.400391 8 z M 10.410156 8.9941406 C 10.305425 8.9940606 10.201379 9.0334981 10.121094 9.1113281 L 10.119141 9.1113281 C 9.9581106 9.2667581 9.9594838 9.5310969 10.121094 9.6855469 L 11.490234 10.994141 L 10.130859 12.310547 C 9.9697994 12.466007 9.9711025 12.730366 10.132812 12.884766 C 10.294432 13.039756 10.552231 13.038562 10.712891 12.882812 L 12.328125 11.318359 L 12.371094 11.277344 C 12.451094 11.199644 12.496484 11.094614 12.496094 10.990234 C 12.495774 10.886014 12.452094 10.782308 12.371094 10.705078 L 10.699219 9.1113281 C 10.618359 9.0338181 10.514888 8.9942206 10.410156 8.9941406 z M 3.3867188 15 C 3.1799687 14.9993 3.0104256 15.166757 3.0097656 15.373047 L 3 18.615234 C 2.9997 18.718364 3.041785 18.811126 3.109375 18.878906 C 3.176875 18.946706 3.2696969 18.989904 3.3730469 18.990234 L 6.625 19 C 6.83186 19.00071 6.99943 18.833253 7 18.626953 C 7.00065 18.420743 6.8336531 18.254556 6.6269531 18.253906 L 3.75 18.244141 L 3.7597656 15.375 C 3.7603856 15.16876 3.5934487 15.00067 3.3867188 15 z M 18.613281 15 C 18.406561 15.00067 18.239624 15.16876 18.240234 15.375 L 18.25 18.244141 L 15.373047 18.253906 C 15.166337 18.254556 14.99935 18.420743 15 18.626953 C 15.00056 18.833253 15.16814 19.00071 15.375 19 L 18.626953 18.990234 C 18.730303 18.989904 18.823125 18.946706 18.890625 18.878906 C 18.958215 18.811126 19.0003 18.718364 19 18.615234 L 18.990234 15.373047 C 18.989574 15.166757 18.820041 14.9993 18.613281 15 z "
        />
</svg>

<svg viewBox="0 0 22 22" xmlns="http://www.w3.org/2000/svg">
<defs>
<style id="current-color-scheme" type="text/css">.ColorScheme-Text {
        color:#363636
      }</style>
</defs>
<path class="ColorScheme-Text" d="m6.625 3-3.252 0.0097656c-0.10335 3.3e-4 -0.19617 0.043528-0.26367 0.11133-0.06759 0.06777-0.10968 0.16053-0.10938 0.26367l0.0097656 3.2422c6.6e-4 0.2063 0.1702 0.37375 0.37695 0.37305 0.20673-6.6e-4 0.37366-0.16875 0.37305-0.375l-0.0097656-2.8691 2.877-0.0097656c0.20671-6.501e-4 0.3737-0.16683 0.37305-0.37305-5.7e-4 -0.20629-0.16813-0.37376-0.375-0.37305zm8.75 0c-0.20686-7.1e-4 -0.37444 0.16676-0.375 0.37305-6.5e-4 0.20622 0.16634 0.3724 0.37305 0.37305l2.877 0.0097656-0.009766 2.8691c-6.1e-4 0.20625 0.16633 0.37434 0.37305 0.375 0.20676 7e-4 0.37629-0.16675 0.37695-0.37305l0.009766-3.2422c3e-4 -0.10314-0.041785-0.1959-0.10938-0.26367-0.0675-0.0678-0.16032-0.111-0.26367-0.11133l-3.252-0.0097656zm-9.9746 2c-0.2216 0-0.40039 0.17879-0.40039 0.40039v11.199c0 0.2216 0.17879 0.40039 0.40039 0.40039h3.1992c0.2216 0 0.40039-0.17879 0.40039-0.40039v-11.199c0-0.2216-0.17879-0.40039-0.40039-0.40039h-3.1992zm9 3c-0.2216 0-0.40039 0.17879-0.40039 0.40039v5.1992c0 0.2216 0.17879 0.40039 0.40039 0.40039h2.1992c0.2216 0 0.40039-0.17879 0.40039-0.40039v-5.1992c0-0.2216-0.17879-0.40039-0.40039-0.40039h-2.1992zm-3.9902 0.99414c-0.10473-8e-5 -0.20878 0.039358-0.28906 0.11719h-0.001953c-0.16103 0.15543-0.15966 0.41977 0.001953 0.57422l1.3691 1.3086-1.3594 1.3164c-0.16106 0.15546-0.15976 0.41982 0.001953 0.57422 0.16162 0.15499 0.41942 0.1538 0.58008-0.001954l1.6152-1.5645 0.042969-0.041015c0.08-0.0777 0.12539-0.18273 0.125-0.28711-3.2e-4 -0.10422-0.044-0.20793-0.125-0.28516l-1.6719-1.5937c-0.08086-0.07751-0.18433-0.11711-0.28906-0.11719zm-7.0234 6.0059c-0.20675-7e-4 -0.37629 0.16676-0.37695 0.37305l-0.0097656 3.2422c-3e-4 0.10313 0.041785 0.19589 0.10938 0.26367 0.0675 0.0678 0.16032 0.111 0.26367 0.11133l3.252 0.009766c0.20686 7.1e-4 0.37443-0.16675 0.375-0.37305 6.5e-4 -0.20621-0.16635-0.3724-0.37305-0.37305l-2.877-0.009765 0.0097656-2.8691c6.2e-4 -0.20624-0.16632-0.37433-0.37305-0.375zm15.227 0c-0.20672 6.7e-4 -0.37366 0.16876-0.37305 0.375l0.009766 2.8691-2.877 0.009765c-0.20671 6.5e-4 -0.3737 0.16684-0.37305 0.37305 5.6e-4 0.2063 0.16814 0.37376 0.375 0.37305l3.252-0.009766c0.10335-3.3e-4 0.19617-0.043528 0.26367-0.11133 0.06759-0.06778 0.10968-0.16054 0.10938-0.26367l-0.009766-3.2422c-6.6e-4 -0.20629-0.17019-0.37375-0.37695-0.37305z" fill="#363636"/>
</svg>
